X: 8269
T: Cormorant Rock
R: reel
M: 4/4
K: Dminor
DF|F2DF G2FG|Ad2c A2de|fedc edcA|dcAG FGEC|
DFGA cdcA|A2cA G2de|fedf edce|dAGF D2:|
|:de|f2gf ea2f|edcA G2FE|DFGA cdc=B|=BcBG A4|
fedf edce|dcAG FGEC|B,DFG AcAd|cAGF D2:|

